X: 27
T: Song of the chief
N: Derived from ojibwa27.krn
C: Chippewa Songs ~ 1910
O: Red Wing, Minnesota, U.S.A
N: Chippewa Music by Frances Densmore, 1910
Z: transcribed to **kern format by Paul von Hippel and Daniel T. Shanahan
L: 1/8
M: 5/4
Q: 1/4=108
K: C clef=bass
%%linebreak <none>
D4C2A,> A,A,2 | 
D4C2A,> A,A,2 | 
C DC2A,< A, A,/ E,/ E,D,2 | 
C,> A,,C,2D,> D, D, D, C,/ C,3/ | 
A,, A,,A,,2-A,,6 | 
C4A,< A, A,/ E,/ E,D,2 | 
C,> A,,C,2D,> D, D, D, C,/ C,3/ | 
A,, A,,A,,2A,,6 |]  



